badinkajink/deligrasp_dataset_builder/deligrasp_dataset/trajectories/1727388202.9507446_orange_noodle_bag_id-0_GRASP/1.csv
timestamp,q0,q1,q2,q3,q4,q5,x,y,z,rx,ry,rz,dx,dy,dz,drx,dry,drz,aperture,d_aperture,applied_force,d_applied_force,contact_force,subtask,task,img,wrist_img
1727388210.85748,0.845456,-1.285819,1.713955,-2.607787,-1.239967,-0.539291,-0.293817,-0.538793,0.324032,-2.463741780059544,-0.06960345194743411,3.0422676294378364,0.0,0.0,0.0,0.0,0.0,0.0,81.25588987582665,-4.719779581959713,4.905,0.04999999999999982,0.12566834048442907,grasp orange noodle bag,grasp orange noodle bag and return to original position,1_1727388210.896079.jpeg,1_1727388210.8499901.jpeg
1727388211.1371193,0.845456,-1.285819,1.713955,-2.607787,-1.239967,-0.539291,-0.293817,-0.538793,0.324032,-2.463741780059544,-0.06960345194743411,3.0422676294378364,0.0,0.0,0.0,0.0,0.0,0.0,76.53611029386694,-5.113957920823012,4.955,0.04999999999999982,0.14282729584487536,grasp orange noodle bag,grasp orange noodle bag and return to original position,1_1727388211.06311.jpeg,1_1727388211.0499854.jpeg
1727388211.4434826,0.845456,-1.285819,1.713955,-2.607787,-1.239967,-0.539291,-0.293817,-0.538793,0.324032,-2.463741780059544,-0.06960345194743411,3.0422676294378364,0.0,0.0,0.0,0.0,0.0,0.0,71.42215237304393,-4.898972479966716,5.005,0.04999999999999982,0.16158203174603175,grasp orange noodle bag,grasp orange noodle bag and return to original position,1_1727388211.397172.jpeg,1_1727388211.449974.jpeg
1727388211.7202783,0.845456,-1.285819,1.713955,-2.607787,-1.239967,-0.539291,-0.293817,-0.538793,0.324032,-2.463741780059544,-0.06960345194743411,3.0422676294378364,0.0,0.0,0.0,0.0,0.0,0.0,66.52317989307721,-4.624569500441325,5.055,0.04999999999999982,0.11491941772853184,grasp orange noodle bag,grasp orange noodle bag and return to original position,1_1727388211.5642064.jpeg,1_1727388211.6499677.jpeg
1727388211.982492,0.845456,-1.285819,1.713955,-2.607787,-1.239967,-0.539291,-0.293817,-0.538793,0.324032,-2.463741780059544,-0.06960345194743411,3.0422676294378364,0.0,0.0,0.0,0.0,0.0,0.0,61.89861039263589,-4.511050673437275,5.1049999999999995,0.0,0.09908256805555557,grasp orange noodle bag,grasp orange noodle bag and return to original position,1_1727388212.0653102.jpeg,1_1727388212.0499532.jpeg
1727388212.2885127,0.845456,-1.285819,1.713955,-2.607787,-1.239967,-0.539291,-0.293817,-0.538793,0.324032,-2.463741780059544,-0.06960345194743411,3.0422676294378364,0.0,0.0,0.0,0.0,0.0,0.0,57.38755971919861,-4.5984317296748,5.1049999999999995,0.04999999999999982,0.1631706,grasp orange noodle bag,grasp orange noodle bag and return to original position,1_1727388212.232346.jpeg,1_1727388212.2499459.jpeg
1727388212.5818315,0.845456,-1.285819,1.713955,-2.607787,-1.239967,-0.539291,-0.293817,-0.538793,0.324032,-2.463741780059544,-0.06960345194743411,3.0422676294378364,0.0,0.0,0.0,0.0,0.0,0.0,52.78912798952381,-1.769261311620184,5.154999999999999,0.04999999999999982,0.16609936612499998,grasp orange noodle bag,grasp orange noodle bag and return to original position,1_1727388212.5664115.jpeg,1_1727388212.6499374.jpeg
1727388212.8598337,0.845456,-1.285819,1.713955,-2.607787,-1.239967,-0.539291,-0.293817,-0.538793,0.324032,-2.463741780059544,-0.06960345194743411,3.0422676294378364,0.0,0.0,0.0,0.0,0.0,0.0,51.01986667790363,-0.4441116697077305,5.204999999999999,0.04999999999999982,1.1915663971606651,grasp orange noodle bag,grasp orange noodle bag and return to original position,1_1727388212.9004729.jpeg,1_1727388212.8499374.jpeg
1727388213.222139,0.845456,-1.285819,1.713955,-2.607787,-1.239967,-0.539291,-0.293817,-0.538793,0.324032,-2.463741780059544,-0.06960345194743411,3.0422676294378364,0.0,0.0,0.0,0.0,0.0,0.0,50.5757550081959,0.0,5.254999999999999,0.0,1.3334760760960003,grasp orange noodle bag,grasp orange noodle bag and return to original position,1_1727388213.234534.jpeg,1_1727388213.2499378.jpeg
