badinkajink/deligrasp_dataset_builder/deligrasp_dataset/trajectories/1727395413.5043073_scallion_stalk_id-0/1.csv
timestamp,q0,q1,q2,q3,q4,q5,x,y,z,rx,ry,rz,dx,dy,dz,drx,dry,drz,aperture,d_aperture,applied_force,d_applied_force,contact_force,subtask,task,img,wrist_img
1727395421.7081604,1.070796,-1.006087,1.504857,-2.500677,-1.118125,-0.84156,-0.201012,-0.674527,0.232402,-2.5316404208990884,-0.050050732644157284,-2.7086896538359597,0.0,0.0,0.0,0.0,0.0,0.0,16.09234849685822,0.0,0.49050000000000005,0.0,0.0,grasp scallion stalk,grasp scallion stalk and return to original position,1_1727395421.6861608.jpeg,1_1727395421.6785898.jpeg
1727395421.7701914,1.070796,-1.006087,1.504857,-2.500677,-1.118125,-0.84156,-0.201012,-0.674527,0.232402,-2.5316404208990884,-0.050050732644157284,-2.7086896538359597,0.0,0.0,0.0,0.0,0.0,0.0,16.09234849685822,-0.22843131337666733,0.49050000000000005,0.0,0.0297984,grasp scallion stalk,grasp scallion stalk and return to original position,1_1727395421.853193.jpeg,1_1727395421.6785898.jpeg
1727395421.831842,1.070796,-1.006087,1.504857,-2.500677,-1.118125,-0.84156,-0.201012,-0.674527,0.232402,-2.5316404208990884,-0.050050732644157284,-2.7086896538359597,0.0,0.0,0.0,0.0,0.0,0.0,15.863917183481554,0.0,0.49050000000000005,0.050000000000000044,0.1167744,grasp scallion stalk,grasp scallion stalk and return to original position,1_1727395421.853193.jpeg,1_1727395421.8785841.jpeg
1727395421.9221697,1.070796,-1.006087,1.504857,-2.500677,-1.118125,-0.84156,-0.201012,-0.674527,0.232402,-2.5316404208990884,-0.050050732644157284,-2.7086896538359597,0.0,0.0,0.0,0.0,0.0,0.0,15.863917183481554,-0.45671643485402313,0.5405000000000001,0.050000000000000044,0.10094151111111112,grasp scallion stalk,grasp scallion stalk and return to original position,1_1727395421.853193.jpeg,1_1727395421.8785841.jpeg
1727395422.0125694,1.070796,-1.006087,1.504857,-2.500677,-1.118125,-0.84156,-0.201012,-0.674527,0.232402,-2.5316404208990884,-0.050050732644157284,-2.7086896538359597,0.0,0.0,0.0,0.0,0.0,0.0,15.407200748627531,0.000320950879256543,0.5905000000000001,0.0,0.0689024,grasp scallion stalk,grasp scallion stalk and return to original position,1_1727395422.020229.jpeg,1_1727395422.078579.jpeg
1727395422.1184673,1.070796,-1.006087,1.504857,-2.500677,-1.118125,-0.84156,-0.201012,-0.674527,0.232402,-2.5316404208990884,-0.050050732644157284,-2.7086896538359597,0.0,0.0,0.0,0.0,0.0,0.0,15.407521699506788,-0.6841716230611325,0.5905000000000001,0.0,0.01122165,grasp scallion stalk,grasp scallion stalk and return to original position,1_1727395422.1872652.jpeg,1_1727395422.078579.jpeg
1727395422.2525907,1.070796,-1.006087,1.504857,-2.500677,-1.118125,-0.84156,-0.201012,-0.674527,0.232402,-2.5316404208990884,-0.050050732644157284,-2.7086896538359597,0.0,0.0,0.0,0.0,0.0,0.0,14.723350076445655,-0.9114337622039805,0.5905000000000001,0.050000000000000044,0.21265130641975313,grasp scallion stalk,grasp scallion stalk and return to original position,1_1727395422.1872652.jpeg,1_1727395422.2785745.jpeg
1727395422.387064,1.070796,-1.006087,1.504857,-2.500677,-1.118125,-0.84156,-0.201012,-0.674527,0.232402,-2.5316404208990884,-0.050050732644157284,-2.7086896538359597,0.0,0.0,0.0,0.0,0.0,0.0,13.811916314241675,-0.9100141162574111,0.6405000000000002,0.050000000000000044,0.15509644567901235,grasp scallion stalk,grasp scallion stalk and return to original position,1_1727395422.5213375.jpeg,1_1727395422.4785695.jpeg
1727395422.506505,1.070796,-1.006087,1.504857,-2.500677,-1.118125,-0.84156,-0.201012,-0.674527,0.232402,-2.5316404208990884,-0.050050732644157284,-2.7086896538359597,0.0,0.0,0.0,0.0,0.0,0.0,12.901902197984263,-0.22683291293661512,0.6905000000000002,0.050000000000000044,0.1222917,grasp scallion stalk,grasp scallion stalk and return to original position,1_1727395422.5213375.jpeg,1_1727395422.4785695.jpeg
1727395422.627465,1.070796,-1.006087,1.504857,-2.500677,-1.118125,-0.84156,-0.201012,-0.674527,0.232402,-2.5316404208990884,-0.050050732644157284,-2.7086896538359597,0.0,0.0,0.0,0.0,0.0,0.0,12.675069285047648,-0.4530377549598228,0.7405000000000003,0.050000000000000044,0.13420580000000001,grasp scallion stalk,grasp scallion stalk and return to original position,1_1727395422.6883738.jpeg,1_1727395422.6785648.jpeg
1727395422.7467937,1.070796,-1.006087,1.504857,-2.500677,-1.118125,-0.84156,-0.201012,-0.674527,0.232402,-2.5316404208990884,-0.050050732644157284,-2.7086896538359597,0.0,0.0,0.0,0.0,0.0,0.0,12.222031530087826,-0.4538049469430163,0.7905000000000003,0.050000000000000044,0.10505042578125,grasp scallion stalk,grasp scallion stalk and return to original position,1_1727395422.6883738.jpeg,1_1727395422.6785648.jpeg
1727395422.881309,1.070796,-1.006087,1.504857,-2.500677,-1.118125,-0.84156,-0.201012,-0.674527,0.232402,-2.5316404208990884,-0.050050732644157284,-2.7086896538359597,0.0,0.0,0.0,0.0,0.0,0.0,11.76822658314481,-0.6806359505592496,0.8405000000000004,0.050000000000000044,0.10845408395061729,grasp scallion stalk,grasp scallion stalk and return to original position,1_1727395422.85541.jpeg,1_1727395422.8785589.jpeg
1727395423.0153935,1.070796,-1.006087,1.504857,-2.500677,-1.118125,-0.84156,-0.201012,-0.674527,0.232402,-2.5316404208990884,-0.050050732644157284,-2.7086896538359597,0.0,0.0,0.0,0.0,0.0,0.0,11.08759063258556,-0.22573671124007433,0.8905000000000004,0.050000000000000044,0.12076673580246913,grasp scallion stalk,grasp scallion stalk and return to original position,1_1727395423.022438.jpeg,1_1727395423.0785582.jpeg
1727395423.1355715,1.070796,-1.006087,1.504857,-2.500677,-1.118125,-0.84156,-0.201012,-0.674527,0.232402,-2.5316404208990884,-0.050050732644157284,-2.7086896538359597,0.0,0.0,0.0,0.0,0.0,0.0,10.861853921345485,-0.45254397096871557,0.9405000000000004,0.050000000000000044,0.11851125,grasp scallion stalk,grasp scallion stalk and return to original position,1_1727395423.1894665.jpeg,1_1727395423.0785582.jpeg
1727395423.2695951,1.070796,-1.006087,1.504857,-2.500677,-1.118125,-0.84156,-0.201012,-0.674527,0.232402,-2.5316404208990884,-0.050050732644157284,-2.7086896538359597,0.0,0.0,0.0,0.0,0.0,0.0,10.40930995037677,-0.453479170750807,0.9905000000000005,0.0,0.088272987654321,grasp scallion stalk,grasp scallion stalk and return to original position,1_1727395423.1894665.jpeg,1_1727395423.2785575.jpeg
1727395423.4047468,1.070796,-1.006087,1.504857,-2.500677,-1.118125,-0.84156,-0.201012,-0.674527,0.232402,-2.5316404208990884,-0.050050732644157284,-2.7086896538359597,0.0,0.0,0.0,0.0,0.0,0.0,9.955830779625963,-0.45167982123147254,0.9905000000000005,0.0,0.08547974320987654,grasp scallion stalk,grasp scallion stalk and return to original position,1_1727395423.5235207.jpeg,1_1727395423.4785573.jpeg
1727395423.5384362,1.070796,-1.006087,1.504857,-2.500677,-1.118125,-0.84156,-0.201012,-0.674527,0.232402,-2.5316404208990884,-0.050050732644157284,-2.7086896538359597,0.0,0.0,0.0,0.0,0.0,0.0,9.50415095839449,-0.6771912602074792,0.9905000000000005,0.0,0.09075516049382717,grasp scallion stalk,grasp scallion stalk and return to original position,1_1727395423.5235207.jpeg,1_1727395423.4785573.jpeg
1727395423.6713865,1.070796,-1.006087,1.504857,-2.500677,-1.118125,-0.84156,-0.201012,-0.674527,0.232402,-2.5316404208990884,-0.050050732644157284,-2.7086896538359597,0.0,0.0,0.0,0.0,0.0,0.0,8.82695969818701,-0.8992205620395026,0.9905000000000005,0.0,0.06566763024691358,grasp scallion stalk,grasp scallion stalk and return to original position,1_1727395423.6905477.jpeg,1_1727395423.678556.jpeg
1727395423.7897527,1.070796,-1.006087,1.504857,-2.500677,-1.118125,-0.84156,-0.201012,-0.674527,0.232402,-2.5316404208990884,-0.050050732644157284,-2.7086896538359597,0.0,0.0,0.0,0.0,0.0,0.0,7.927739136147508,-0.4494655497584077,0.9905000000000005,0.0,0.0274125,grasp scallion stalk,grasp scallion stalk and return to original position,1_1727395423.8575742.jpeg,1_1727395423.878556.jpeg
1727395423.9129288,1.070796,-1.006087,1.504857,-2.500677,-1.118125,-0.84156,-0.201012,-0.674527,0.232402,-2.5316404208990884,-0.050050732644157284,-2.7086896538359597,0.0,0.0,0.0,0.0,0.0,0.0,7.478273586389101,-0.22367563568072057,0.9905000000000005,0.0,0.039313500781249996,grasp scallion stalk,grasp scallion stalk and return to original position,1_1727395423.8575742.jpeg,1_1727395423.878556.jpeg
1727395424.0326066,1.070796,-1.006087,1.504857,-2.500677,-1.118125,-0.84156,-0.201012,-0.674527,0.232402,-2.5316404208990884,-0.050050732644157284,-2.7086896538359597,0.0,0.0,0.0,0.0,0.0,0.0,7.25459795070838,-0.6736812017449765,0.9905000000000005,0.0,0.08472225,grasp scallion stalk,grasp scallion stalk and return to original position,1_1727395424.0246046.jpeg,1_1727395424.0785575.jpeg
1727395424.166693,1.070796,-1.006087,1.504857,-2.500677,-1.118125,-0.84156,-0.201012,-0.674527,0.232402,-2.5316404208990884,-0.050050732644157284,-2.7086896538359597,0.0,0.0,0.0,0.0,0.0,0.0,6.5809167489634035,-0.22310163059955812,0.9905000000000005,0.04999999999999993,0.12470123456790123,grasp scallion stalk,grasp scallion stalk and return to original position,1_1727395424.1916344.jpeg,1_1727395424.0785575.jpeg
1727395424.285658,1.070796,-1.006087,1.504857,-2.500677,-1.118125,-0.84156,-0.201012,-0.674527,0.232402,-2.5316404208990884,-0.050050732644157284,-2.7086896538359597,0.0,0.0,0.0,0.0,0.0,0.0,6.357815118363845,-0.22476614936415729,1.0405000000000004,0.050000000000000044,0.114777,grasp scallion stalk,grasp scallion stalk and return to original position,1_1727395424.1916344.jpeg,1_1727395424.2785578.jpeg
1727395424.4046645,1.070796,-1.006087,1.504857,-2.500677,-1.118125,-0.84156,-0.201012,-0.674527,0.232402,-2.5316404208990884,-0.050050732644157284,-2.7086896538359597,0.0,0.0,0.0,0.0,0.0,0.0,6.133048968999688,-0.44731170588997315,1.0905000000000005,0.050000000000000044,0.112284,grasp scallion stalk,grasp scallion stalk and return to original position,1_1727395424.5256941.jpeg,1_1727395424.4785597.jpeg
1727395424.5550632,1.070796,-1.006087,1.504857,-2.500677,-1.118125,-0.84156,-0.201012,-0.674527,0.232402,-2.5316404208990884,-0.050050732644157284,-2.7086896538359597,0.0,0.0,0.0,0.0,0.0,0.0,5.685737263109715,-0.22423966611825108,1.1405000000000005,0.050000000000000044,0.117269106,grasp scallion stalk,grasp scallion stalk and return to original position,1_1727395424.5256941.jpeg,1_1727395424.4785597.jpeg
1727395424.7047043,1.070796,-1.006087,1.504857,-2.500677,-1.118125,-0.84156,-0.201012,-0.674527,0.232402,-2.5316404208990884,-0.050050732644157284,-2.7086896538359597,0.0,0.0,0.0,0.0,0.0,0.0,5.461497596991464,-0.44647185718087457,1.1905000000000006,0.050000000000000044,0.24077977820000018,grasp scallion stalk,grasp scallion stalk and return to original position,1_1727395424.692725.jpeg,1_1727395424.6785617.jpeg
1727395424.85303,1.070796,-1.006087,1.504857,-2.500677,-1.118125,-0.84156,-0.201012,-0.674527,0.232402,-2.5316404208990884,-0.050050732644157284,-2.7086896538359597,0.0,0.0,0.0,0.0,0.0,0.0,5.015025739810589,-0.44588649469302766,1.2405000000000006,0.050000000000000044,0.132287394,grasp scallion stalk,grasp scallion stalk and return to original position,1_1727395424.8597543.jpeg,1_1727395424.878564.jpeg
1727395425.0016603,1.070796,-1.006087,1.504857,-2.500677,-1.118125,-0.84156,-0.201012,-0.674527,0.232402,-2.5316404208990884,-0.050050732644157284,-2.7086896538359597,0.0,0.0,0.0,0.0,0.0,0.0,4.569139245117562,-0.4465221679647442,1.2905000000000006,0.0,0.0981632,grasp scallion stalk,grasp scallion stalk and return to original position,1_1727395425.02679.jpeg,1_1727395425.0785613.jpeg
1727395425.1494038,1.070796,-1.006087,1.504857,-2.500677,-1.118125,-0.84156,-0.201012,-0.674527,0.232402,-2.5316404208990884,-0.050050732644157284,-2.7086896538359597,0.0,0.0,0.0,0.0,0.0,0.0,4.1226170771528174,0.0,1.2905000000000006,0.050000000000000044,0.34323105569999973,grasp scallion stalk,grasp scallion stalk and return to original position,1_1727395425.1938255.jpeg,1_1727395425.0785613.jpeg
1727395425.2827835,1.070796,-1.006087,1.504857,-2.500677,-1.118125,-0.84156,-0.201012,-0.674527,0.232402,-2.5316404208990884,-0.050050732644157284,-2.7086896538359597,0.0,0.0,0.0,0.0,0.0,0.0,4.1226170771528174,-0.22282078484595047,1.3405000000000007,0.050000000000000044,0.209416025,grasp scallion stalk,grasp scallion stalk and return to original position,1_1727395425.1938255.jpeg,1_1727395425.2785597.jpeg
1727395425.4305928,1.070796,-1.006087,1.504857,-2.500677,-1.118125,-0.84156,-0.201012,-0.674527,0.232402,-2.5316404208990884,-0.050050732644157284,-2.7086896538359597,0.0,0.0,0.0,0.0,0.0,0.0,3.899796292306867,-0.22251946664371047,1.3905000000000007,0.050000000000000044,0.32138088080000005,grasp scallion stalk,grasp scallion stalk and return to original position,1_1727395425.5278966.jpeg,1_1727395425.4785578.jpeg
1727395425.579028,1.070796,-1.006087,1.504857,-2.500677,-1.118125,-0.84156,-0.201012,-0.674527,0.232402,-2.5316404208990884,-0.050050732644157284,-2.7086896538359597,0.0,0.0,0.0,0.0,0.0,0.0,3.6772768256631565,0.0,1.4405000000000008,0.0,0.1077766625,grasp scallion stalk,grasp scallion stalk and return to original position,1_1727395425.5278966.jpeg,1_1727395425.678555.jpeg
