badinkajink/deligrasp_dataset_builder/deligrasp_dataset/trajectories/1727392485.9284844_cherry_tomato_id-0/1.csv
timestamp,q0,q1,q2,q3,q4,q5,x,y,z,rx,ry,rz,dx,dy,dz,drx,dry,drz,aperture,d_aperture,applied_force,d_applied_force,contact_force,subtask,task,img,wrist_img
1727392494.1773007,1.019887,-1.058827,1.597623,-2.562684,-1.140611,-0.735594,-0.22284,-0.640288,0.232157,-2.5301652337661187,-0.019138641984739548,-2.8557859836995494,0.0,0.0,0.0,0.0,0.0,0.0,22.05422822194638,0.0,0.1962,0.0,0.015197905999999999,grasp cherry tomato,grasp cherry tomato and return to original position,1_1727392494.245544.jpeg,1_1727392494.1134777.jpeg
1727392494.2820423,1.019887,-1.058827,1.597623,-2.562684,-1.140611,-0.735594,-0.22284,-0.640288,0.232157,-2.5301652337661187,-0.019138641984739548,-2.8557859836995494,0.0,0.0,0.0,0.0,0.0,0.0,22.05422822194638,0.0,0.1962,0.0,0.07494765,grasp cherry tomato,grasp cherry tomato and return to original position,1_1727392494.245544.jpeg,1_1727392494.3134756.jpeg
1727392494.4168952,1.019887,-1.058827,1.597623,-2.562684,-1.140611,-0.735594,-0.22284,-0.640288,0.232157,-2.5301652337661187,-0.019138641984739548,-2.8557859836995494,0.0,0.0,0.0,0.0,0.0,0.0,22.05422822194638,-0.22995685048900683,0.1962,0.0,0.008456143827160494,grasp cherry tomato,grasp cherry tomato and return to original position,1_1727392494.4125767.jpeg,1_1727392494.5134737.jpeg
1727392494.5952044,1.019887,-1.058827,1.597623,-2.562684,-1.140611,-0.735594,-0.22284,-0.640288,0.232157,-2.5301652337661187,-0.019138641984739548,-2.8557859836995494,0.0,0.0,0.0,0.0,0.0,0.0,21.824271371457375,0.0,0.1962,0.0,0.092721103125,grasp cherry tomato,grasp cherry tomato and return to original position,1_1727392494.7466428.jpeg,1_1727392494.5134737.jpeg
1727392494.788853,1.019887,-1.058827,1.597623,-2.562684,-1.140611,-0.735594,-0.22284,-0.640288,0.232157,-2.5301652337661187,-0.019138641984739548,-2.8557859836995494,0.0,0.0,0.0,0.0,0.0,0.0,21.824271371457375,-0.22988750350570442,0.1962,0.05000000000000002,0.10588409023668639,grasp cherry tomato,grasp cherry tomato and return to original position,1_1727392494.7466428.jpeg,1_1727392494.7134717.jpeg
1727392495.0085633,1.019887,-1.058827,1.597623,-2.562684,-1.140611,-0.735594,-0.22284,-0.640288,0.232157,-2.5301652337661187,-0.019138641984739548,-2.8557859836995494,0.0,0.0,0.0,0.0,0.0,0.0,21.59438386795167,-0.2298121342500572,0.24620000000000003,0.0,0.048219048,grasp cherry tomato,grasp cherry tomato and return to original position,1_1727392495.0807116.jpeg,1_1727392494.9134688.jpeg
1727392495.2569478,1.019887,-1.058827,1.597623,-2.562684,-1.140611,-0.735594,-0.22284,-0.640288,0.232157,-2.5301652337661187,-0.019138641984739548,-2.8557859836995494,0.0,0.0,0.0,0.0,0.0,0.0,21.364571733701613,0.0,0.24620000000000003,0.04999999999999999,0.10648634065743945,grasp cherry tomato,grasp cherry tomato and return to original position,1_1727392495.247746.jpeg,1_1727392495.3134642.jpeg
1727392495.5348377,1.019887,-1.058827,1.597623,-2.562684,-1.140611,-0.735594,-0.22284,-0.640288,0.232157,-2.5301652337661187,-0.019138641984739548,-2.8557859836995494,0.0,0.0,0.0,0.0,0.0,0.0,21.364571733701613,-0.2297307446964183,0.2962,0.04999999999999999,0.10876644944598339,grasp cherry tomato,grasp cherry tomato and return to original position,1_1727392495.4147806.jpeg,1_1727392495.5134618.jpeg
1727392495.84059,1.019887,-1.058827,1.597623,-2.562684,-1.140611,-0.735594,-0.22284,-0.640288,0.232157,-2.5301652337661187,-0.019138641984739548,-2.8557859836995494,0.0,0.0,0.0,0.0,0.0,0.0,21.134840989005195,0.0,0.3462,0.0,0.13072867142857145,grasp cherry tomato,grasp cherry tomato and return to original position,1_1727392495.915882.jpeg,1_1727392495.9134564.jpeg
