badinkajink/deligrasp_dataset_builder/deligrasp_dataset/trajectories/1727392521.5757682_cherry_tomato_id-0/1.csv
timestamp,q0,q1,q2,q3,q4,q5,x,y,z,rx,ry,rz,dx,dy,dz,drx,dry,drz,aperture,d_aperture,applied_force,d_applied_force,contact_force,subtask,task,img,wrist_img
1727392530.613308,1.109861,-0.976226,1.562267,-2.829011,-1.836772,0.383869,-0.225952,-0.656101,0.221008,-2.4247686418270487,0.0389382934343488,2.2255306364053435,0.0,0.0,0.0,0.0,0.0,0.0,22.284112100002517,0.0,0.1962,0.0,0.07494765,grasp cherry tomato,grasp cherry tomato and return to original position,1_1727392530.658859.jpeg,1_1727392530.712997.jpeg
1727392530.7183719,1.109861,-0.976226,1.562267,-2.829011,-1.836772,0.383869,-0.225952,-0.656101,0.221008,-2.4247686418270487,0.0389382934343488,2.2255306364053435,0.0,0.0,0.0,0.0,0.0,0.0,22.284112100002517,0.0,0.1962,0.0,0.07494765,grasp cherry tomato,grasp cherry tomato and return to original position,1_1727392530.658859.jpeg,1_1727392530.712997.jpeg
1727392530.8508098,1.109861,-0.976226,1.562267,-2.829011,-1.836772,0.383869,-0.225952,-0.656101,0.221008,-2.4247686418270487,0.0389382934343488,2.2255306364053435,0.0,0.0,0.0,0.0,0.0,0.0,22.284112100002517,-0.22995685048900683,0.1962,0.0,0.07494765,grasp cherry tomato,grasp cherry tomato and return to original position,1_1727392530.8258958.jpeg,1_1727392530.9129946.jpeg
1727392531.0261946,1.109861,-0.976226,1.562267,-2.829011,-1.836772,0.383869,-0.225952,-0.656101,0.221008,-2.4247686418270487,0.0389382934343488,2.2255306364053435,0.0,0.0,0.0,0.0,0.0,0.0,22.05415524951351,0.0,0.1962,0.0,0.07494765,grasp cherry tomato,grasp cherry tomato and return to original position,1_1727392531.1599593.jpeg,1_1727392531.1129882.jpeg
1727392531.2322729,1.109861,-0.976226,1.562267,-2.829011,-1.836772,0.383869,-0.225952,-0.656101,0.221008,-2.4247686418270487,0.0389382934343488,2.2255306364053435,0.0,0.0,0.0,0.0,0.0,0.0,22.05415524951351,0.0,0.1962,0.0,0.09308762142857144,grasp cherry tomato,grasp cherry tomato and return to original position,1_1727392531.1599593.jpeg,1_1727392531.3129807.jpeg
1727392531.4679542,1.109861,-0.976226,1.562267,-2.829011,-1.836772,0.383869,-0.225952,-0.656101,0.221008,-2.4247686418270487,0.0389382934343488,2.2255306364053435,0.0,0.0,0.0,0.0,0.0,0.0,22.05415524951351,0.0,0.1962,0.05000000000000002,0.15110225,grasp cherry tomato,grasp cherry tomato and return to original position,1_1727392531.4940226.jpeg,1_1727392531.5129738.jpeg
1727392531.7318227,1.109861,-0.976226,1.562267,-2.829011,-1.836772,0.383869,-0.225952,-0.656101,0.221008,-2.4247686418270487,0.0389382934343488,2.2255306364053435,0.0,0.0,0.0,0.0,0.0,0.0,22.05415524951351,-0.22988750350570442,0.24620000000000003,0.04999999999999999,0.15110225,grasp cherry tomato,grasp cherry tomato and return to original position,1_1727392531.6610541.jpeg,1_1727392531.7129667.jpeg
1727392532.0248508,1.109861,-0.976226,1.562267,-2.829011,-1.836772,0.383869,-0.225952,-0.656101,0.221008,-2.4247686418270487,0.0389382934343488,2.2255306364053435,0.0,0.0,0.0,0.0,0.0,0.0,21.824267746007806,-0.2298121342500572,0.2962,0.04999999999999999,0.149653826,grasp cherry tomato,grasp cherry tomato and return to original position,1_1727392532.162153.jpeg,1_1727392532.1129584.jpeg
1727392532.344343,1.109861,-0.976226,1.562267,-2.829011,-1.836772,0.383869,-0.225952,-0.656101,0.221008,-2.4247686418270487,0.0389382934343488,2.2255306364053435,0.0,0.0,0.0,0.0,0.0,0.0,21.59445561175775,0.0,0.3462,0.0,0.12587769142561983,grasp cherry tomato,grasp cherry tomato and return to original position,1_1727392532.3291879.jpeg,1_1727392532.3129585.jpeg
