badinkajink/deligrasp_dataset_builder/deligrasp_dataset/trajectories/1727395354.2034051_scallion_stalk_id-0/1.csv
timestamp,q0,q1,q2,q3,q4,q5,x,y,z,rx,ry,rz,dx,dy,dz,drx,dry,drz,aperture,d_aperture,applied_force,d_applied_force,contact_force,subtask,task,img,wrist_img
1727395363.4150324,1.062773,-0.977125,1.375926,-2.399746,-1.466277,-0.265367,-0.245419,-0.686393,0.253831,-2.700637341331716,-0.022747647729643758,2.9228751489109106,0.0,0.0,0.0,0.0,0.0,0.0,15.63563959099837,0.0,0.49050000000000005,0.0,0.0,grasp scallion stalk,grasp scallion stalk and return to original position,1_1727395363.3912628.jpeg,1_1727395363.479311.jpeg
1727395363.462799,1.062773,-0.977125,1.375926,-2.399746,-1.466277,-0.265367,-0.245419,-0.686393,0.253831,-2.700637341331716,-0.022747647729643758,2.9228751489109106,0.0,0.0,0.0,0.0,0.0,0.0,15.63563959099837,-0.45655673386242057,0.49050000000000005,0.0,0.0,grasp scallion stalk,grasp scallion stalk and return to original position,1_1727395363.3912628.jpeg,1_1727395363.479311.jpeg
1727395363.5247774,1.062773,-0.977125,1.375926,-2.399746,-1.466277,-0.265367,-0.245419,-0.686393,0.253831,-2.700637341331716,-0.022747647729643758,2.9228751489109106,0.0,0.0,0.0,0.0,0.0,0.0,15.179082857135949,0.0004866277854311818,0.49050000000000005,0.0,0.07856640000000001,grasp scallion stalk,grasp scallion stalk and return to original position,1_1727395363.3912628.jpeg,1_1727395363.479311.jpeg
1727395363.6015801,1.062773,-0.977125,1.375926,-2.399746,-1.466277,-0.265367,-0.245419,-0.686393,0.253831,-2.700637341331716,-0.022747647729643758,2.9228751489109106,0.0,0.0,0.0,0.0,0.0,0.0,15.17956948492138,-0.22778056610488662,0.49050000000000005,0.0,0.074706176,grasp scallion stalk,grasp scallion stalk and return to original position,1_1727395363.7253327.jpeg,1_1727395363.6793096.jpeg
1727395363.6778111,1.062773,-0.977125,1.375926,-2.399746,-1.466277,-0.265367,-0.245419,-0.686393,0.253831,-2.700637341331716,-0.022747647729643758,2.9228751489109106,0.0,0.0,0.0,0.0,0.0,0.0,14.951788918816494,-0.4550223231101356,0.49050000000000005,0.0,0.0591936,grasp scallion stalk,grasp scallion stalk and return to original position,1_1727395363.7253327.jpeg,1_1727395363.6793096.jpeg
1727395363.7824883,1.062773,-0.977125,1.375926,-2.399746,-1.466277,-0.265367,-0.245419,-0.686393,0.253831,-2.700637341331716,-0.022747647729643758,2.9228751489109106,0.0,0.0,0.0,0.0,0.0,0.0,14.496766595706358,-0.22843884237083856,0.49050000000000005,0.0,0.03753611428571429,grasp scallion stalk,grasp scallion stalk and return to original position,1_1727395363.7253327.jpeg,1_1727395363.879307.jpeg
1727395363.9163773,1.062773,-0.977125,1.375926,-2.399746,-1.466277,-0.265367,-0.245419,-0.686393,0.253831,-2.700637341331716,-0.022747647729643758,2.9228751489109106,0.0,0.0,0.0,0.0,0.0,0.0,14.26832775333552,-1.137508537710513,0.49050000000000005,0.0,0.016742291975308642,grasp scallion stalk,grasp scallion stalk and return to original position,1_1727395363.8923662.jpeg,1_1727395363.879307.jpeg
1727395364.0514321,1.062773,-0.977125,1.375926,-2.399746,-1.466277,-0.265367,-0.245419,-0.686393,0.253831,-2.700637341331716,-0.022747647729643758,2.9228751489109106,0.0,0.0,0.0,0.0,0.0,0.0,13.130819215625007,-0.4545861751977682,0.49050000000000005,0.0,0.07649507716049382,grasp scallion stalk,grasp scallion stalk and return to original position,1_1727395364.0593998.jpeg,1_1727395364.0793052.jpeg
1727395364.1719685,1.062773,-0.977125,1.375926,-2.399746,-1.466277,-0.265367,-0.245419,-0.686393,0.253831,-2.700637341331716,-0.022747647729643758,2.9228751489109106,0.0,0.0,0.0,0.0,0.0,0.0,12.676233040427238,-0.4542015103394128,0.49050000000000005,0.0,0.09940725,grasp scallion stalk,grasp scallion stalk and return to original position,1_1727395364.226433.jpeg,1_1727395364.0793052.jpeg
1727395364.2914693,1.062773,-0.977125,1.375926,-2.399746,-1.466277,-0.265367,-0.245419,-0.686393,0.253831,-2.700637341331716,-0.022747647729643758,2.9228751489109106,0.0,0.0,0.0,0.0,0.0,0.0,12.222031530087826,-0.22619297397159244,0.49050000000000005,0.0,0.06367690078125,grasp scallion stalk,grasp scallion stalk and return to original position,1_1727395364.226433.jpeg,1_1727395364.2793036.jpeg
1727395364.4108474,1.062773,-0.977125,1.375926,-2.399746,-1.466277,-0.265367,-0.245419,-0.686393,0.253831,-2.700637341331716,-0.022747647729643758,2.9228751489109106,0.0,0.0,0.0,0.0,0.0,0.0,11.995838556116233,-0.22596780240060355,0.49050000000000005,0.0,0.02366565,grasp scallion stalk,grasp scallion stalk and return to original position,1_1727395364.3934665.jpeg,1_1727395364.4793015.jpeg
1727395364.5447836,1.062773,-0.977125,1.375926,-2.399746,-1.466277,-0.265367,-0.245419,-0.686393,0.253831,-2.700637341331716,-0.022747647729643758,2.9228751489109106,0.0,0.0,0.0,0.0,0.0,0.0,11.76987075371563,-0.6807773772081589,0.49050000000000005,0.0,0.01122165,grasp scallion stalk,grasp scallion stalk and return to original position,1_1727395364.3934665.jpeg,1_1727395364.4793015.jpeg
1727395364.6933343,1.062773,-0.977125,1.375926,-2.399746,-1.466277,-0.265367,-0.245419,-0.686393,0.253831,-2.700637341331716,-0.022747647729643758,2.9228751489109106,0.0,0.0,0.0,0.0,0.0,0.0,11.08909337650747,-0.45273916170586403,0.49050000000000005,0.0,0.025177745999999997,grasp scallion stalk,grasp scallion stalk and return to original position,1_1727395364.7275338.jpeg,1_1727395364.6792986.jpeg
1727395364.8410814,1.062773,-0.977125,1.375926,-2.399746,-1.466277,-0.265367,-0.245419,-0.686393,0.253831,-2.700637341331716,-0.022747647729643758,2.9228751489109106,0.0,0.0,0.0,0.0,0.0,0.0,10.636354214801607,-0.22525679452068204,0.49050000000000005,0.0,0.03113205,grasp scallion stalk,grasp scallion stalk and return to original position,1_1727395364.8945665.jpeg,1_1727395364.8792968.jpeg
1727395364.9749198,1.062773,-0.977125,1.375926,-2.399746,-1.466277,-0.265367,-0.245419,-0.686393,0.253831,-2.700637341331716,-0.022747647729643758,2.9228751489109106,0.0,0.0,0.0,0.0,0.0,0.0,10.411097420280925,-0.680523435175644,0.49050000000000005,0.0,0.06011846975308643,grasp scallion stalk,grasp scallion stalk and return to original position,1_1727395364.8945665.jpeg,1_1727395364.8792968.jpeg
1727395365.1083398,1.062773,-0.977125,1.375926,-2.399746,-1.466277,-0.265367,-0.245419,-0.686393,0.253831,-2.700637341331716,-0.022747647729643758,2.9228751489109106,0.0,0.0,0.0,0.0,0.0,0.0,9.73057398510528,-0.9006769612433914,0.49050000000000005,0.0,0.051391669753086414,grasp scallion stalk,grasp scallion stalk and return to original position,1_1727395365.061599.jpeg,1_1727395365.07929.jpeg
1727395365.2417324,1.062773,-0.977125,1.375926,-2.399746,-1.466277,-0.265367,-0.245419,-0.686393,0.253831,-2.700637341331716,-0.022747647729643758,2.9228751489109106,0.0,0.0,0.0,0.0,0.0,0.0,8.82989702386189,-0.45043027979979655,0.49050000000000005,0.050000000000000044,0.156680262345679,grasp scallion stalk,grasp scallion stalk and return to original position,1_1727395365.2286315.jpeg,1_1727395365.2792828.jpeg
1727395365.3760107,1.062773,-0.977125,1.375926,-2.399746,-1.466277,-0.265367,-0.245419,-0.686393,0.253831,-2.700637341331716,-0.022747647729643758,2.9228751489109106,0.0,0.0,0.0,0.0,0.0,0.0,8.379466744062093,-0.6756814605430677,0.5405000000000001,0.050000000000000044,0.17262365000000002,grasp scallion stalk,grasp scallion stalk and return to original position,1_1727395365.395664.jpeg,1_1727395365.2792828.jpeg
1727395365.5094447,1.062773,-0.977125,1.375926,-2.399746,-1.466277,-0.265367,-0.245419,-0.686393,0.253831,-2.700637341331716,-0.022747647729643758,2.9228751489109106,0.0,0.0,0.0,0.0,0.0,0.0,7.703785283519025,-0.44918733281064505,0.5905000000000001,0.050000000000000044,0.18330980000000002,grasp scallion stalk,grasp scallion stalk and return to original position,1_1727395365.395664.jpeg,1_1727395365.4792745.jpeg
1727395365.628365,1.062773,-0.977125,1.375926,-2.399746,-1.466277,-0.265367,-0.245419,-0.686393,0.253831,-2.700637341331716,-0.022747647729643758,2.9228751489109106,0.0,0.0,0.0,0.0,0.0,0.0,7.25459795070838,-0.22339155919049603,0.6405000000000002,0.050000000000000044,0.18449365,grasp scallion stalk,grasp scallion stalk and return to original position,1_1727395365.7297287.jpeg,1_1727395365.679267.jpeg
1727395365.747419,1.062773,-0.977125,1.375926,-2.399746,-1.466277,-0.265367,-0.245419,-0.686393,0.253831,-2.700637341331716,-0.022747647729643758,2.9228751489109106,0.0,0.0,0.0,0.0,0.0,0.0,7.031206391517884,-0.6733912731540386,0.6905000000000002,0.0,0.07888,grasp scallion stalk,grasp scallion stalk and return to original position,1_1727395365.7297287.jpeg,1_1727395365.679267.jpeg
1727395365.8663938,1.062773,-0.977125,1.375926,-2.399746,-1.466277,-0.265367,-0.245419,-0.686393,0.253831,-2.700637341331716,-0.022747647729643758,2.9228751489109106,0.0,0.0,0.0,0.0,0.0,0.0,6.357815118363845,-0.4475720068672686,0.6905000000000002,0.0,0.06979083828125,grasp scallion stalk,grasp scallion stalk and return to original position,1_1727395365.8967612.jpeg,1_1727395365.879259.jpeg
1727395365.9853406,1.062773,-0.977125,1.375926,-2.399746,-1.466277,-0.265367,-0.245419,-0.686393,0.253831,-2.700637341331716,-0.022747647729643758,2.9228751489109106,0.0,0.0,0.0,0.0,0.0,0.0,5.910243111496577,0.22476614936415729,0.6905000000000002,0.0,0.048113203125000004,grasp scallion stalk,grasp scallion stalk and return to original position,1_1727395366.0637946.jpeg,1_1727395366.0792577.jpeg
1727395366.1051705,1.062773,-0.977125,1.375926,-2.399746,-1.466277,-0.265367,-0.245419,-0.686393,0.253831,-2.700637341331716,-0.022747647729643758,2.9228751489109106,0.0,0.0,0.0,0.0,0.0,0.0,6.135009260860734,-0.8939730543399875,0.6905000000000002,0.0,0.08110769999999999,grasp scallion stalk,grasp scallion stalk and return to original position,1_1727395366.0637946.jpeg,1_1727395366.0792577.jpeg
1727395366.2541625,1.062773,-0.977125,1.375926,-2.399746,-1.466277,-0.265367,-0.245419,-0.686393,0.253831,-2.700637341331716,-0.022747647729643758,2.9228751489109106,0.0,0.0,0.0,0.0,0.0,0.0,5.2410362065207465,-0.22423966611825108,0.6905000000000002,0.0,0.0689024,grasp scallion stalk,grasp scallion stalk and return to original position,1_1727395366.230827.jpeg,1_1727395366.2792575.jpeg
1727395366.403404,1.062773,-0.977125,1.375926,-2.399746,-1.466277,-0.265367,-0.245419,-0.686393,0.253831,-2.700637341331716,-0.022747647729643758,2.9228751489109106,0.0,0.0,0.0,0.0,0.0,0.0,5.0167965404024955,-0.6674156362783421,0.6905000000000002,0.0,0.082858496,grasp scallion stalk,grasp scallion stalk and return to original position,1_1727395366.3978596.jpeg,1_1727395366.4792573.jpeg
1727395366.5522676,1.062773,-0.977125,1.375926,-2.399746,-1.466277,-0.265367,-0.245419,-0.686393,0.253831,-2.700637341331716,-0.022747647729643758,2.9228751489109106,0.0,0.0,0.0,0.0,0.0,0.0,4.349380904124153,-0.44492928672750764,0.6905000000000002,0.0,0.079875296,grasp scallion stalk,grasp scallion stalk and return to original position,1_1727395366.3978596.jpeg,1_1727395366.4792573.jpeg
1727395366.701972,1.062773,-0.977125,1.375926,-2.399746,-1.466277,-0.265367,-0.245419,-0.686393,0.253831,-2.700637341331716,-0.022747647729643758,2.9228751489109106,0.0,0.0,0.0,0.0,0.0,0.0,3.9044516173966457,-0.22090892890203406,0.6905000000000002,0.050000000000000044,0.2576473862000001,grasp scallion stalk,grasp scallion stalk and return to original position,1_1727395366.7319243.jpeg,1_1727395366.6792574.jpeg
1727395366.8512852,1.062773,-0.977125,1.375926,-2.399746,-1.466277,-0.265367,-0.245419,-0.686393,0.253831,-2.700637341331716,-0.022747647729643758,2.9228751489109106,0.0,0.0,0.0,0.0,0.0,0.0,3.6835426884946116,-0.4465221679647442,0.7405000000000003,0.050000000000000044,0.201102016,grasp scallion stalk,grasp scallion stalk and return to original position,1_1727395366.8989599.jpeg,1_1727395366.8792565.jpeg
1727395366.9861748,1.062773,-0.977125,1.375926,-2.399746,-1.466277,-0.265367,-0.245419,-0.686393,0.253831,-2.700637341331716,-0.022747647729643758,2.9228751489109106,0.0,0.0,0.0,0.0,0.0,0.0,3.2370205205298674,-0.44339325461173473,0.7905000000000003,0.050000000000000044,0.18181510148148144,grasp scallion stalk,grasp scallion stalk and return to original position,1_1727395367.0659957.jpeg,1_1727395367.0792534.jpeg
1727395367.1349242,1.062773,-0.977125,1.375926,-2.399746,-1.466277,-0.265367,-0.245419,-0.686393,0.253831,-2.700637341331716,-0.022747647729643758,2.9228751489109106,0.0,0.0,0.0,0.0,0.0,0.0,2.7936272659181327,-0.4427496990231887,0.8405000000000004,0.050000000000000044,0.13335761629999998,grasp scallion stalk,grasp scallion stalk and return to original position,1_1727395367.0659957.jpeg,1_1727395367.0792534.jpeg
1727395367.283662,1.062773,-0.977125,1.375926,-2.399746,-1.466277,-0.265367,-0.245419,-0.686393,0.253831,-2.700637341331716,-0.022747647729643758,2.9228751489109106,0.0,0.0,0.0,0.0,0.0,0.0,2.350877566894944,-0.2222123191866885,0.8905000000000004,0.050000000000000044,0.17740245,grasp scallion stalk,grasp scallion stalk and return to original position,1_1727395367.2330315.jpeg,1_1727395367.2792504.jpeg
1727395367.4464164,1.062773,-0.977125,1.375926,-2.399746,-1.466277,-0.265367,-0.245419,-0.686393,0.253831,-2.700637341331716,-0.022747647729643758,2.9228751489109106,0.0,0.0,0.0,0.0,0.0,0.0,2.1286652477082555,0.0,0.9405000000000004,0.050000000000000044,0.12309272892561984,grasp scallion stalk,grasp scallion stalk and return to original position,1_1727395367.4000673.jpeg,1_1727395367.4792473.jpeg
1727395367.6094267,1.062773,-0.977125,1.375926,-2.399746,-1.466277,-0.265367,-0.245419,-0.686393,0.253831,-2.700637341331716,-0.022747647729643758,2.9228751489109106,0.0,0.0,0.0,0.0,0.0,0.0,2.1286652477082555,-0.22189935052104204,0.9905000000000005,0.04999999999999993,0.24316551946280993,grasp scallion stalk,grasp scallion stalk and return to original position,1_1727395367.5671043.jpeg,1_1727395367.679243.jpeg
1727395367.787673,1.062773,-0.977125,1.375926,-2.399746,-1.466277,-0.265367,-0.245419,-0.686393,0.253831,-2.700637341331716,-0.022747647729643758,2.9228751489109106,0.0,0.0,0.0,0.0,0.0,0.0,1.9067658971872135,0.0,1.0405000000000004,0.0,0.328190828125,grasp scallion stalk,grasp scallion stalk and return to original position,1_1727395367.5671043.jpeg,1_1727395367.8792398.jpeg
