badinkajink/deligrasp_dataset_builder/deligrasp_dataset/trajectories/1727393283.4501052_strawberry/1.csv
timestamp,q0,q1,q2,q3,q4,q5,x,y,z,rx,ry,rz,dx,dy,dz,drx,dry,drz,aperture,d_aperture,applied_force,d_applied_force,contact_force,subtask,task,img,wrist_img
1727393291.4978592,1.187704,-1.101334,1.625915,-2.621745,-1.413925,-0.421428,-0.129662,-0.652925,0.248671,-2.6012870301948685,-0.08675457466322531,-3.0781349440154187,0.0,0.0,0.0,0.0,0.0,0.0,26.65753457172196,-0.23029372714698226,0.24525,0.0,0.0,grasp strawberry,grasp strawberry and return to original position,1_1727393291.498714.jpeg,1_1727393291.5031388.jpeg
1727393291.588967,1.187704,-1.101334,1.625915,-2.621745,-1.413925,-0.421428,-0.129662,-0.652925,0.248671,-2.6012870301948685,-0.08675457466322531,-3.0781349440154187,0.0,0.0,0.0,0.0,0.0,0.0,26.42724084457498,-0.23027230884748207,0.24525,0.0,0.0,grasp strawberry,grasp strawberry and return to original position,1_1727393291.6657481.jpeg,1_1727393291.5031388.jpeg
1727393291.7085726,1.187704,-1.101334,1.625915,-2.621745,-1.413925,-0.421428,-0.129662,-0.652925,0.248671,-2.6012870301948685,-0.08675457466322531,-3.0781349440154187,0.0,0.0,0.0,0.0,0.0,0.0,26.196968535727496,-0.4605636320195998,0.24525,0.0,0.074933328125,grasp strawberry,grasp strawberry and return to original position,1_1727393291.6657481.jpeg,1_1727393291.7031379.jpeg
1727393291.8710637,1.187704,-1.101334,1.625915,-2.621745,-1.413925,-0.421428,-0.129662,-0.652925,0.248671,-2.6012870301948685,-0.08675457466322531,-3.0781349440154187,0.0,0.0,0.0,0.0,0.0,0.0,25.736404903707896,-0.23030972342984057,0.24525,0.0,0.06992220041322314,grasp strawberry,grasp strawberry and return to original position,1_1727393291.832782.jpeg,1_1727393291.9031367.jpeg
1727393292.0475194,1.187704,-1.101334,1.625915,-2.621745,-1.413925,-0.421428,-0.129662,-0.652925,0.248671,-2.6012870301948685,-0.08675457466322531,-3.0781349440154187,0.0,0.0,0.0,0.0,0.0,0.0,25.506095180278056,-0.2302946397019774,0.24525,0.0,0.0809421388888889,grasp strawberry,grasp strawberry and return to original position,1_1727393291.9998162.jpeg,1_1727393292.1031363.jpeg
1727393292.2386198,1.187704,-1.101334,1.625915,-2.621745,-1.413925,-0.421428,-0.129662,-0.652925,0.248671,-2.6012870301948685,-0.08675457466322531,-3.0781349440154187,0.0,0.0,0.0,0.0,0.0,0.0,25.27580054057608,-0.23027352303612147,0.24525,0.0,0.08836859674556213,grasp strawberry,grasp strawberry and return to original position,1_1727393292.3338804.jpeg,1_1727393292.3031359.jpeg
1727393292.444948,1.187704,-1.101334,1.625915,-2.621745,-1.413925,-0.421428,-0.129662,-0.652925,0.248671,-2.6012870301948685,-0.08675457466322531,-3.0781349440154187,0.0,0.0,0.0,0.0,0.0,0.0,25.045527017539957,-0.2302463739855405,0.24525,0.05000000000000002,0.1084425,grasp strawberry,grasp strawberry and return to original position,1_1727393292.5009124.jpeg,1_1727393292.5031357.jpeg
1727393292.665761,1.187704,-1.101334,1.625915,-2.621745,-1.413925,-0.421428,-0.129662,-0.652925,0.248671,-2.6012870301948685,-0.08675457466322531,-3.0781349440154187,0.0,0.0,0.0,0.0,0.0,0.0,24.815280643554416,-0.4603871749942421,0.29525,0.04999999999999999,0.10145502777777778,grasp strawberry,grasp strawberry and return to original position,1_1727393292.6679444.jpeg,1_1727393292.7031343.jpeg
1727393292.9302812,1.187704,-1.101334,1.625915,-2.621745,-1.413925,-0.421428,-0.129662,-0.652925,0.248671,-2.6012870301948685,-0.08675457466322531,-3.0781349440154187,0.0,0.0,0.0,0.0,0.0,0.0,24.354893468560174,0.0,0.34525,0.0,0.12734806250000003,grasp strawberry,grasp strawberry and return to original position,1_1727393292.834976.jpeg,1_1727393292.903134.jpeg
