badinkajink/deligrasp_dataset_builder/deligrasp_dataset/trajectories/1727294449.9548342_green_circuit_board_id-0/1.csv
timestamp,q0,q1,q2,q3,q4,q5,x,y,z,rx,ry,rz,dx,dy,dz,drx,dry,drz,aperture,d_aperture,applied_force,d_applied_force,contact_force,subtask,task,img,wrist_img
1727294455.9910097,1.03494,-1.314684,1.962223,-2.70613,-1.366459,-0.500571,-0.166793,-0.530613,0.236565,-2.6213414322800523,-0.07167739254656083,-3.138001024411102,0.0,0.0,0.0,0.0,0.0,0.0,101.58472362406124,-2.5690307718419376,9.81,0.3000000000000007,0.8078370552040823,grasp green circuit board,grasp green circuit board and return to original position,1_1727294455.941272.jpeg,1_1727294455.9415045.jpeg
1727294456.2145455,1.03494,-1.314684,1.962223,-2.70613,-1.366459,-0.500571,-0.166793,-0.530613,0.236565,-2.6213414322800523,-0.07167739254656083,-3.138001024411102,0.0,0.0,0.0,0.0,0.0,0.0,99.0156928522193,-2.1387681401669454,10.110000000000001,0.0,0.07713182444444444,grasp green circuit board,grasp green circuit board and return to original position,1_1727294456.275337.jpeg,1_1727294456.141501.jpeg
1727294456.422822,1.03494,-1.314684,1.962223,-2.70613,-1.366459,-0.500571,-0.166793,-0.530613,0.236565,-2.6213414322800523,-0.07167739254656083,-3.138001024411102,0.0,0.0,0.0,0.0,0.0,0.0,96.87692471205236,-1.6388773600723425,10.110000000000001,0.3000000000000007,0.1088427125,grasp green circuit board,grasp green circuit board and return to original position,1_1727294456.4423692.jpeg,1_1727294456.3414962.jpeg
1727294456.588199,1.03494,-1.314684,1.962223,-2.70613,-1.366459,-0.500571,-0.166793,-0.530613,0.236565,-2.6213414322800523,-0.07167739254656083,-3.138001024411102,0.0,0.0,0.0,0.0,0.0,0.0,95.23804735198001,-2.159663404221618,10.410000000000002,0.0,0.08838088760330579,grasp green circuit board,grasp green circuit board and return to original position,1_1727294456.4423692.jpeg,1_1727294456.5414925.jpeg
1727294456.7790272,1.03494,-1.314684,1.962223,-2.70613,-1.366459,-0.500571,-0.166793,-0.530613,0.236565,-2.6213414322800523,-0.07167739254656083,-3.138001024411102,0.0,0.0,0.0,0.0,0.0,0.0,93.0783839477584,-1.6011871587223254,10.410000000000002,0.3000000000000007,0.25304858177514783,grasp green circuit board,grasp green circuit board and return to original position,1_1727294456.776435.jpeg,1_1727294456.7414885.jpeg
1727294456.9562259,1.03494,-1.314684,1.962223,-2.70613,-1.366459,-0.500571,-0.166793,-0.530613,0.236565,-2.6213414322800523,-0.07167739254656083,-3.138001024411102,0.0,0.0,0.0,0.0,0.0,0.0,91.47719678903607,-1.9618859684690904,10.710000000000003,0.3000000000000007,1.0946405496875,grasp green circuit board,grasp green circuit board and return to original position,1_1727294456.9434683.jpeg,1_1727294456.9414847.jpeg
1727294457.1319602,1.03494,-1.314684,1.962223,-2.70613,-1.366459,-0.500571,-0.166793,-0.530613,0.236565,-2.6213414322800523,-0.07167739254656083,-3.138001024411102,0.0,0.0,0.0,0.0,0.0,0.0,89.51531082056698,-2.1962130508892415,11.010000000000003,0.3000000000000007,0.3326994453125,grasp green circuit board,grasp green circuit board and return to original position,1_1727294457.110502.jpeg,1_1727294457.1414838.jpeg
1727294457.3096852,1.03494,-1.314684,1.962223,-2.70613,-1.366459,-0.500571,-0.166793,-0.530613,0.236565,-2.6213414322800523,-0.07167739254656083,-3.138001024411102,0.0,0.0,0.0,0.0,0.0,0.0,87.31909776967774,-1.9104092495078078,11.310000000000004,0.3000000000000007,0.4157555355555556,grasp green circuit board,grasp green circuit board and return to original position,1_1727294457.2775364.jpeg,1_1727294457.3414843.jpeg
1727294457.4846497,1.03494,-1.314684,1.962223,-2.70613,-1.366459,-0.500571,-0.166793,-0.530613,0.236565,-2.6213414322800523,-0.07167739254656083,-3.138001024411102,0.0,0.0,0.0,0.0,0.0,0.0,85.40868852016993,-2.138867239398664,11.610000000000005,0.3000000000000007,0.14630428888888888,grasp green circuit board,grasp green circuit board and return to original position,1_1727294457.44457.jpeg,1_1727294457.5414848.jpeg
1727294457.6615386,1.03494,-1.314684,1.962223,-2.70613,-1.366459,-0.500571,-0.166793,-0.530613,0.236565,-2.6213414322800523,-0.07167739254656083,-3.138001024411102,0.0,0.0,0.0,0.0,0.0,0.0,83.26982128077127,-1.827037508125997,11.910000000000005,0.3000000000000007,0.43704135645833303,grasp green circuit board,grasp green circuit board and return to original position,1_1727294457.7786398.jpeg,1_1727294457.7414856.jpeg
1727294457.826257,1.03494,-1.314684,1.962223,-2.70613,-1.366459,-0.500571,-0.166793,-0.530613,0.236565,-2.6213414322800523,-0.07167739254656083,-3.138001024411102,0.0,0.0,0.0,0.0,0.0,0.0,81.44278377264527,-1.2995805825176205,12.210000000000006,0.3000000000000007,0.1236310214876033,grasp green circuit board,grasp green circuit board and return to original position,1_1727294457.7786398.jpeg,1_1727294457.7414856.jpeg
1727294457.98873,1.03494,-1.314684,1.962223,-2.70613,-1.366459,-0.500571,-0.166793,-0.530613,0.236565,-2.6213414322800523,-0.07167739254656083,-3.138001024411102,0.0,0.0,0.0,0.0,0.0,0.0,80.14320319012765,-2.6395743907622204,12.510000000000007,0.3000000000000007,0.12871981487603307,grasp green circuit board,grasp green circuit board and return to original position,1_1727294457.9456763.jpeg,1_1727294457.9414856.jpeg
1727294458.1932406,1.03494,-1.314684,1.962223,-2.70613,-1.366459,-0.500571,-0.166793,-0.530613,0.236565,-2.6213414322800523,-0.07167739254656083,-3.138001024411102,0.0,0.0,0.0,0.0,0.0,0.0,77.50362879936543,-1.7362824175312994,12.810000000000008,0.3000000000000007,0.7007641015306126,grasp green circuit board,grasp green circuit board and return to original position,1_1727294458.1127129.jpeg,1_1727294458.1414857.jpeg
1727294458.355041,1.03494,-1.314684,1.962223,-2.70613,-1.366459,-0.500571,-0.166793,-0.530613,0.236565,-2.6213414322800523,-0.07167739254656083,-3.138001024411102,0.0,0.0,0.0,0.0,0.0,0.0,75.76734638183413,-2.547978163364661,13.110000000000008,0.3000000000000007,1.8951605931818183,grasp green circuit board,grasp green circuit board and return to original position,1_1727294458.2797492.jpeg,1_1727294458.341486.jpeg
1727294458.5597863,1.03494,-1.314684,1.962223,-2.70613,-1.366459,-0.500571,-0.166793,-0.530613,0.236565,-2.6213414322800523,-0.07167739254656083,-3.138001024411102,0.0,0.0,0.0,0.0,0.0,0.0,73.21936821846947,-1.793723719256434,13.410000000000009,0.3000000000000007,0.11822057142857142,grasp green circuit board,grasp green circuit board and return to original position,1_1727294458.446786.jpeg,1_1727294458.5414853.jpeg
1727294458.72211,1.03494,-1.314684,1.962223,-2.70613,-1.366459,-0.500571,-0.166793,-0.530613,0.236565,-2.6213414322800523,-0.07167739254656083,-3.138001024411102,0.0,0.0,0.0,0.0,0.0,0.0,71.42564449921304,-1.0063179508397724,13.71000000000001,0.3000000000000007,0.11734685619834712,grasp green circuit board,grasp green circuit board and return to original position,1_1727294458.78086.jpeg,1_1727294458.7414858.jpeg
1727294458.8702407,1.03494,-1.314684,1.962223,-2.70613,-1.366459,-0.500571,-0.166793,-0.530613,0.236565,-2.6213414322800523,-0.07167739254656083,-3.138001024411102,0.0,0.0,0.0,0.0,0.0,0.0,70.41932654837326,-1.8326189343157324,14.01000000000001,0.3000000000000007,0.6140887200000003,grasp green circuit board,grasp green circuit board and return to original position,1_1727294458.947896.jpeg,1_1727294458.9414864.jpeg
1727294459.0467803,1.03494,-1.314684,1.962223,-2.70613,-1.366459,-0.500571,-0.166793,-0.530613,0.236565,-2.6213414322800523,-0.07167739254656083,-3.138001024411102,0.0,0.0,0.0,0.0,0.0,0.0,68.58670761405753,-3.0976798187401187,14.310000000000011,0.3000000000000007,0.1542114,grasp green circuit board,grasp green circuit board and return to original position,1_1727294459.114932.jpeg,1_1727294459.1414857.jpeg
1727294459.2672927,1.03494,-1.314684,1.962223,-2.70613,-1.366459,-0.500571,-0.166793,-0.530613,0.236565,-2.6213414322800523,-0.07167739254656083,-3.138001024411102,0.0,0.0,0.0,0.0,0.0,0.0,65.48902779531741,-0.4177527138127459,14.610000000000012,0.3000000000000007,0.9912525610000003,grasp green circuit board,grasp green circuit board and return to original position,1_1727294459.2819686.jpeg,1_1727294459.3414836.jpeg
1727294459.4006917,1.03494,-1.314684,1.962223,-2.70613,-1.366459,-0.500571,-0.166793,-0.530613,0.236565,-2.6213414322800523,-0.07167739254656083,-3.138001024411102,0.0,0.0,0.0,0.0,0.0,0.0,65.07127508150467,-2.314644733279394,14.910000000000013,0.3000000000000007,0.8916370303086416,grasp green circuit board,grasp green circuit board and return to original position,1_1727294459.4490047.jpeg,1_1727294459.3414836.jpeg
1727294459.5771208,1.03494,-1.314684,1.962223,-2.70613,-1.366459,-0.500571,-0.166793,-0.530613,0.236565,-2.6213414322800523,-0.07167739254656083,-3.138001024411102,0.0,0.0,0.0,0.0,0.0,0.0,62.75663034822527,-1.7013569942196085,15.210000000000013,0.3000000000000007,0.11667511111111112,grasp green circuit board,grasp green circuit board and return to original position,1_1727294459.4490047.jpeg,1_1727294459.541483.jpeg
1727294459.739177,1.03494,-1.314684,1.962223,-2.70613,-1.366459,-0.500571,-0.166793,-0.530613,0.236565,-2.6213414322800523,-0.07167739254656083,-3.138001024411102,0.0,0.0,0.0,0.0,0.0,0.0,61.055273354005664,-2.1489392931497235,15.510000000000014,0.3000000000000007,0.10243663512396693,grasp green circuit board,grasp green circuit board and return to original position,1_1727294459.7830791.jpeg,1_1727294459.741482.jpeg
1727294459.9589317,1.03494,-1.314684,1.962223,-2.70613,-1.366459,-0.500571,-0.166793,-0.530613,0.236565,-2.6213414322800523,-0.07167739254656083,-3.138001024411102,0.0,0.0,0.0,0.0,0.0,0.0,58.90633406085594,-1.2978081020061865,15.810000000000015,0.29999999999999893,1.8446365694222224,grasp green circuit board,grasp green circuit board and return to original position,1_1727294459.9501173.jpeg,1_1727294459.9414802.jpeg
1727294460.162977,1.03494,-1.314684,1.962223,-2.70613,-1.366459,-0.500571,-0.166793,-0.530613,0.236565,-2.6213414322800523,-0.07167739254656083,-3.138001024411102,0.0,0.0,0.0,0.0,0.0,0.0,57.608525958849754,-1.5222641488488335,16.110000000000014,0.3000000000000007,0.18669646785714286,grasp green circuit board,grasp green circuit board and return to original position,1_1727294460.1171556.jpeg,1_1727294460.1414769.jpeg
1727294460.3980386,1.03494,-1.314684,1.962223,-2.70613,-1.366459,-0.500571,-0.166793,-0.530613,0.236565,-2.6213414322800523,-0.07167739254656083,-3.138001024411102,0.0,0.0,0.0,0.0,0.0,0.0,56.08626181000092,-1.3146865387088695,16.410000000000014,0.3000000000000007,1.678435365292969,grasp green circuit board,grasp green circuit board and return to original position,1_1727294460.4512336.jpeg,1_1727294460.3414733.jpeg
1727294460.6176345,1.03494,-1.314684,1.962223,-2.70613,-1.366459,-0.500571,-0.166793,-0.530613,0.236565,-2.6213414322800523,-0.07167739254656083,-3.138001024411102,0.0,0.0,0.0,0.0,0.0,0.0,54.77157527129205,0.0,16.710000000000015,0.0,4.999664548688889,grasp green circuit board,grasp green circuit board and return to original position,1_1727294460.4512336.jpeg,1_1727294460.54147.jpeg
